X:1
T:James Gibb editions
T:I met the good Shepherd - Barnby
%%score [ ( 1 2 ) ( 3 4 ) ]
L:1/8
Q:1/4=100
M:3/4
K:D
V:1 treble nm="Midi_74"
V:2 treble 
V:3 bass nm="Midi_74"
V:4 bass 
V:1
"^Edward Caswall\n(1814-78)""^I met the good Shepherd""^Joseph Barnby\n(1838-96)""^The good Shepherd (11 11. 11 11)" A2 | %1
 d2 A2 F2 | E2 D2 E2 | F2 A2 E2 | F4 || D2 | G2 G2 F2 | E2 B2 A2 | d2 c2 B2 | A4 ||[M:3/4] A2 | %11
 e2 c2 A2 | B2 A2 A2 | d2 B2 A2 | G4 || B2 | A2 F2 E2 | D2 E2 G2 | F2 D2 E2 | D6 || G6 | F6 |] %22
V:2
 F2 | F2 D2 C2 | C2 D2 D2 | D2 D2 C2 | D4 || D2 | D2 D2 D2 | D2 E2 A2 | F2 ^G2 G2 | A4 || %10
[M:3/4] A2 | A2 A2 E2 | D2 D2 C2 | D2 F2 F2 | G4 || C2 | D2 D2 C2 | D2 D2 D2 | D2 A,2 C2 | D6 || %20
 D6 | D6 |] %22
V:3
 A,2 | A,2 F,2 A,2 | G,2 F,2 B,2 | A,2 F,2 G,2 | F,4 || D,2 | D,2 G,2"^1" A,2 |"^1" B,2 C2 D2 | %8
 D2 E2 D2 | C4 ||[M:3/4] A,2 | C2 E2 C2 | %12
 D2 A,2"^1 I met the good Shepherd just now on the plain,\nAs homeward he carried His lost one again;\nI marvelled how gently His burden he bore,\nAnd as he passed by me I knelt to adore.\n\n2 O Shepherd, good Shepherd, Thy wounds they are deep;\nThe wolves have sore hurt thee in saving thy sheep.\nThy raiment all over with crimson is dyed;\nAnd what is this wound they have made in thy side?\n\n3 O Shepherd, good Shepherd, and is it for me\nThis grievous affliction has fallen on thee?\nThy wounds make me love thee, my heart shall be thine;\nWith thee I will journey, my shepherd divine." G,2 | %13
 F,2 D2 =C2 | B,4 || G,2 | A,2 A,2 ^A,2 | B,2 B,2 B,2 | A,2 F,2 G,2 | F,6 || B,6 | A,6 |] %22
V:4
 D,2 | D,2 D,2 A,,2 | B,,2 B,,2 G,,2 | A,,2 A,,2 A,,2 | D,4 || D,2 | B,,2 B,,2 A,,2 | %7
 G,,2 G,2 F,2 | B,2 E,2 E,2 | A,4 ||[M:3/4] A,2 | G,2 A,2 G,2 | F,2 F,2 E,2 | D,2 D,2 ^D,2 | E,4 || %15
 E,2 | F,2 F,2 F,2 | B,2 G,2 E,2 | A,2 A,,2 A,,2 | D,6 || G,,6 | D,6 |] %22

